X:2513
T:Ballantyne's Reel
C:anon.
O:England
R:Reel
Z:C.G.P
F:http://abc.musicaviva.com/tunes/england/ballantynes-reel.abc
%Posted at abcusers Jan 2nd 2001 by Johnny Adams.
M:4/4
L:1/4
Q:1/2=120
K:G
|:Bc|d^c/d/ed|BBBA|GF/G/AG|E2AB|c/B/A/B/ c/B/A/B/|fffe|d^c/d/ed|B2Bc|
d^c/d/ed|BBBA|GF/G/Bd|e3f|g>gfe|edd2|d/^c/=c/A/EF|G2:|
|:Bc|dBeB|dBeB|dBg/f/e/d/|c3A/B/|cAfA|cAff/g/|a/g/f/e/ e/d/^c/d/|eBBB/c/|
dBeB|dBeB|gf/g/ a/g/f/g/|e2ef|g>gfe|edd2|d/^c/=c/A/EF|G2:|
W:
W:
W:  From Musica Viva - http://www.musicaviva.com
W:  the Internet center for free sheet music downloads.
